X:1
T:Piano Sonata No. 2
T:III
C:Sergei Rachmaninoff
%%score { ( 1 2 5 ) | ( 3 4 6 ) }
L:1/8
Q:1/4=42
M:3/4
K:C
V:1 treble nm="Piano" snm="Pno."
V:2 treble 
V:5 treble 
V:3 bass 
V:4 bass 
V:6 bass 
V:1
"^L'istesso Tempo"!mf!!<(! (e !tenuto!f2!<)!!>(! e^cd)!>)! |!p! (!tenuto!d2 G3)!<(! (A | %2
 _B!<)! d2!>(! cAB)!>)! |!p! (!tenuto!_B F2)!<(! (G2 A)!<)! | %4
!>(!"_dim." (!tenuto!G D2)!>)! (E2 F) |!pp! !tenuto![G,CE]3 !tenuto![F,CD]3 | [G,CE]6 || %7
[K:Bb][Q:1/4=180]"^Allegro Molto"!ff! (3z (!>!f'!>!=e' (3!>!_e'_d'b z2 | %8
 (3e_dB (3G[I:staff +1]F=E[I:staff -1][K:bass] _E/_D/B,/G,/) |!ff! [D,F,B,=D]2 z2 z2 | %10
 [D,F,B,D]2 z2 z2 | [D,F,B,D][D,F,B,D] [D,F,B,D]2 [D,F,B,D]2 | z2 [D,F,B,D][D,F,B,D] [D,F,B,D]2 | %13
 z!p! .[D,B,D]"_cresc." .[D,B,D].A, .[D,B,D]._A, | .[D,B,D].=G, .[D,B,D]._G, .[D,B,D](F, | %15
!ff! (3:2:2[_D,_G,B,_D]2)[K:treble] [B_d]- !tenuto![Bd_gb]2- (3:2:2[Bdgb]2 [DB-d-] | %16
 !tenuto![_ABdf_a]2- (3:2:2[ABdfa]2 [_DB-_d-] !tenuto![_GBde_g]2- | %17
 (3:2:2[GBdeg]2 [B,_G-B-] !tenuto![FGB_df]2- (3:2:2[FGBdf]2 [B,G-B-] | %18
 !tenuto![EGB_ce]2- (3:2:2[EGBce]2 [B,_G-B-] [_DGB_d]2 | (3z z!ff! !>![fbd'f'] !>![dbd']4 | %20
 ([B,DF]2 [=E,G,=E]2 [_E,A,_E]2 | [D,B,D])[K:bass]!pp! .[D,B,D]"_cresc." .[D,B,D].A, .[D,B,D]._A, | %22
 .[D,B,D].=G, .[D,B,D]._G, .[D,B,D](F, | %23
!ff! (3:2:2!tenuto![_D,_G,B,_D]2)[K:treble] [B_d]- !tenuto![Bd_gb]2- (3:2:2[Bdgb]2 [_DB-d-] | %24
 !tenuto![_ABdf_a]2- (3:2:2[ABdfa]2 [_DB-_d-] !tenuto![_GBde_g]2- | %25
 (3:2:2[GBdeg]2 [B,_G-B-] !tenuto![FGB_df]2- (3:2:2[FGBdf]2 [B,G-B-] | %26
 !tenuto![EGB_ce]2- (3:2:2[EG-Bce]2 [B,_G-B-] !tenuto![_DGB_d]2 | %27
 (3z z (=D!mf! (3[_Ac]fE (3[=A^c]fF | (3[Bd]f^F!<(! (3[B^c]^fG (3[Bd]g) z!<)! | %29
!p! (3([A^c]fF (3[Bd]g=c) (3([d^f]"_cresc."bd | (3[eg]d'e) (3([^fb]d'f (3[bd']g'g) | %31
 (3z z!ff! ([gg'-] (3:2:2[bd'g'b']2) ([^f^f'-] [a^c'f'a']2) | %32
 (3z z ([dd'-] (3:2:2[^fbd'^f']2) ([^c^c'-] [=fbc'=f']2) | %33
 (3z z ([Bb-] (3:2:2[dgbd']2) ([Aa-] [^c^fa^c']2) | (3z z ([Gg-] (3:2:2[Bdgb]2) ([^F^f-] [^cfa]2) | %35
 z2"_marcato" [Bdgb]2 [=EB=e]2 | !fermata![Bdgb]2 !fermata![_E_c_e]2 !fermata![Bdgb]2 | %37
 !fermata![_DB_d]2 !fermata![B=dfb]2 !fermata![CE_Gc]2 | %38
 !fermata![Bdfb]2 z[K:bass] !>!!fermata![D,B,DF] !>!!fermata![D,B,D]2 | %39
 z !>!!fermata![D,B,DF] !>!!fermata![D,B,D]2 z [D,B,DF] | %40
 .[D,B,D]!p!.[D,B,D]"_cresc." .[D,B,D].[D,A,D] .[D,B,D].[D,_A,D] | %41
 .[D,B,D].[D,=G,D] .[D,B,D].[D,_G,D] .[D,B,D](F, | %42
!ff! (3:2:2!tenuto![_D,_G,B,_D]2)[K:treble] [B_d]- !tenuto![Bd_gb]2- (3:2:2[Bdgb]2 [_DB-d-] | %43
 !tenuto![_ABdf_a]2- (3:2:2[ABdfa]2 [_DB-_d-] !tenuto![_GBde_g]2- | %44
 (3:2:2[GBdeg]2 [B,_G-B-] !tenuto![FGB_df]2- (3:2:2[FGBdf]2 [B,G-B-] | %45
 !tenuto![EGB_ce]2- (3:2:2[EG-Bce]2 [B,_G-B-] !tenuto![_DGB_d]2 | %46
 (3z z!mf! (=D (3[_Ac]fE (3[=A^c]fF | (3[Bd]f!<(!^F (3[B^c]^fG (3[Bd]g)!<)! z | %48
 (3z z!mf! (E (3[Bd]gF (3[=Bd]gG | (3[ce]!<(!g_A (3[ce]_a=A (3[ce]=a)(!fermata!A!<)! | %50
!mf! !fermata!x (3dad (3ad'a!8va(! (3d'a'd' | (3a'd''a' (3d''a''a' (3c''g'c')!8va)! | %52
!f! [af']2 !fermata![db]2 !fermata![FAdf]2 | %53
 !fermata![B,DGB]2"_dim." !fermata![F,_CF]2 !fermata![D,B,]2 |!f! !>![dd']4 !>![D,D]2 | %55
 (3(CDE .[B,DF]2) !tenuto![G,EG]2 | !>![Gg]6 | !>![dd']4 !>![D,D]2 | %58
"_dim." (3(G,A,B, .[F,A,C]2) !tenuto![D,B,D]2 | !tenuto!G4 z2 |!mf! !tenuto!d4 !tenuto![D,D]2 | %61
!f! !>![_G,E_G]6 |[K:bass]!p! (B,2 A,2 _A,2 | _G,2 E,2 B,,2- |!pp! B,,A,,_A,,G,,_G,,E,,) | %65
[K:treble] z2 z2!p! (3.[D^F]z!<(!([=EG] | %66
[M:4/4]!>(! !tenuto![D^FA]4)!<)!!>)! [B,D=FB]2 (3.[C=E]z!<(!([DF]!<)! | %67
!>(! !tenuto![C=EG]4)!>)! .[A,C_EA]2 (3.[B,D]z"_gliss."([B,-CE] | %68
!<(! [B,DF]2) .[G,B,^CG]2!<)!!>(! !tenuto![G,B,CG]4!>)! | %69
 !tenuto![A,D^FA]2!f! !>![_Ge_g]4!p! (3.[DF]z!<(!([=E=G] | %70
 [D^FA]4!<)!!>(! !tenuto![=B,_D=F=B]2) (3[C=E]!>)!z!<(!([=DF]!<)! | %71
!>(! [C=EG]4!>)! !tenuto![A,_C_EA]2) (3[B,D]z!<(!([B,-=CE] | %72
 .[B,DF]2) .[G,B,^CG]2!<)!!>(! !tenuto![G,A,CG]4!>)! | !tenuto![A,D^FA]2!f! [B_gb]4 !>!B2- | %74
[Q:1/4=162]"^rit.""_dim." B8 | %75
[M:3/4][Q:1/4=150]"^a tempo, poco meno\nmosso"!p! [_A,=DG]2"^" (!tenuto!g3 B) | (!tenuto!B2 e4) | %77
 (!tenuto!d4 _c2) | (!tenuto!_c4 G2) | z2 (!tenuto!B2 !tenuto!_A2 |"_dim." G2 F2 G2 | %81
!p! !tenuto!B,2)"_" (!tenuto!g3 B) | (!tenuto![GB]2 e4) |"_" (d2 !tenuto!^c3) (d | %84
 !tenuto!=c3) (d !fermata!B2) |!p! z2 (F2 B2 |!>(! c4!>)!!p! B2-) | (!tenuto!B2 =A3 B) | %88
 (!tenuto!B=A) (!tenuto!!fermata!A_A) (!tenuto!!fermata!AG) | z2 (G2 c2 | %90
!>(! !tenuto!_d4!>)!!p! c2) | z2 (=B3 c) | (!tenuto!c=B) (!tenuto!B!fermata!_B) (!tenuto!BA) | %93
 z2"_cresc." (A2 d2 | e4 =e2) | (!tenuto!f2 !tenuto!^f2 !tenuto!!fermata!g2) | %96
!f! (!tenuto!b4 _a2) | (g2 !tenuto!f4) |"_dim." (g2 !tenuto!e4) | (g2 !tenuto!=d4) | %100
[Q:1/4=147]"^rit." !tenuto!g2 (!tenuto!=c3 _c) | %101
!mf![Q:1/4=150]"^a tempo" (!tenuto!!fermata!f2 B4) |"_dim." (!tenuto!e2 B4) | %103
 !tenuto!c2 (!tenuto!!fermata!=A3{/x} !arpeggio!B) |!p! (!tenuto!B2 E4) | %105
!ff![Q:1/4=180]"^Tempo I" (3z (gg' (3=f'e'c' (3a[I:staff +1]g^f | %106
[I:staff -1] (3=fec (3A[I:staff +1]G^F[I:staff -1] =F/E/C/A,/) | %107
[K:bass]!ff! .[=E,C=E]2 z2 .[E,CE]2 | z2 .[=E,C=E].[E,CE] .[E,CE]2 | %109
[K:treble] (3z gg' =f'/_e'/c'/a/ z2 | x2 =F/E/C/A,/ (3:2:2x2[K:bass] x | %111
 .[E,C_E]2 z .[G,CEG] .[E,C_E]2 | z .[G,CEG] .[E,CE]2 z .[G,CEG] | %113
 .[E,_CE]2[K:treble]!f! [_A_ce]2 z .[_A,E] | .[_A,E]2 z[K:bass] [_A,,E,] [A,,E,]2 || %115
[K:C][K:treble]!ff! (3z (bb' (3^a'g'e' (3^c'^ag | z2 (3^FE^C[K:bass] ^A,/G,/^F,/E,/) | %117
[K:treble]!ff![Q:1/4=177]"^174" z e- !tenuto![ceac']3 e- | %118
 !tenuto![Bcegb]3 !fermata!e !tenuto![Acfa]2- | [Acfa]c- !tenuto![GAceg]3 c- | %120
 !tenuto![FAcf]3 !fermata!c-!>(! !tenuto![EAce]2!>)! |!p![Q:1/4=180]"^180" !tenuto!c4 !tenuto!a2 | %122
 !tenuto!c4 !tenuto!_a2 | !tenuto!c4 !tenuto!g2 | !tenuto!c4 !tenuto!_g2 | %125
!p! (3z z !>![c-c'] !>![c_ea]4 |!f! z2 !tenuto![_c_e_c']2 !tenuto!!fermata![_E_B]2 | %127
 (3z z [_Ec]!<(! A4!<)! |!f! (3z[K:bass] (_C_B, (3A,_G,_E, (3_C,_B,,A,,) | %129
[K:treble]!ff! z f- !tenuto![_df_b_d']3 f- | !tenuto![c_df_ac']3 !fermata!f- !tenuto![_Bdf_g_b]2- | %131
 [Bdfgb]_d- !tenuto![_A_Bdf_a]3 d- | !tenuto![_G_Bd_g]3 !fermata!_d- !tenuto![FBdf]2 | %133
!>(! !tenuto!_d4 !tenuto!_b2 | !tenuto!_d4 !tenuto!a2 | !tenuto!^c4 !tenuto!^g2 | %136
 !tenuto!^c4 !tenuto!=g2!>)! | (3z z [^c^c'] [^Ae^a]4 | %138
!f! z2 !tenuto![=ce=c']2 !tenuto!!fermata![E=B]2 | (3z z [E^c] ^A4 | %140
!f! (3z[K:bass] (=CB, (3_B,G,E, (3C,B,,_B,,) |[K:treble]!ff! z ^f- !tenuto![dfbd']3 [df]- | %142
 !tenuto![^cdfa^c']3 !fermata![d^f]- !tenuto![Bdfgb]2- | [Bdfgb][Bd]- !tenuto![ABd^fa]3 [Bd]- | %144
 !tenuto![GBdg]3 !fermata![Bd]- !tenuto![^FBd^f]2 | %145
!ff! (3:2:2[=F,_B,D=F]2 [df]- !tenuto![df_bd']2- (3:2:2[dfbd']2 [Fd-f-] | %146
 !tenuto![cdfac']2- (3:2:2[cdfac']2 [Fd-f-] !tenuto![_Bdfg_b]2- | %147
 (3:2:2[Bdfgb]2 [D_B-d-] !tenuto![ABdfa]2- (3:2:2[ABdfa]2 [DB-d-] | %148
 !tenuto![GBd_eg]2- (3:2:2[GBdeg]2 [D_B-d-] !tenuto![FBdf]2 | (3z z!mf! (^F (3[c=e]aG (3[^c^e]aA | %150
 (3[d^f]a^A (3[df]^aB (3[df]b) z | (3z z"_cresc." (G (3[d^f]bA (3[^dg]bB | %152
 (3[=e^g]bc (3[e=g]c'^c (3[eg]^c') z |!mf! z2 (^c2 d2) |"_cresc." z2 (d2 _e2) | %155
 z2!f! (!tenuto!^d2 e2) |"_dim." (!tenuto!e2 f2)!p! !>![^F^c^f][Bd] | %157
[Q:1/4=162]"^Più mosso" !>![dg].[^ce] !>![ea].[d^f] !>![f_b].[eg] | %158
 (3[^ce]z([d^f] !>![^dg]).[ce] !>![=fa].[_e^f] | %159
 .[G_Bd].[^ce] .[d^f].[eg] (!tenuto![dfa]!fermata!A) | %160
!f!{/!fermata!x!fermata!x!fermata!x} .!fermata![_Bd_a_b] !>![_ga_c']2 !>![_fac']2 .[_eac'] | %161
!8va(! .[=b=e'^g'=b'].[be'g'b'].[be'g'b'].[be'g'b']!8va)!!p! !>![^d^g].[^ce] | %162
 !>![ea].[^d^f] !>![fb].[e^g] !>![g=c'].[fa] | (3[^d^f]z([e^g] !>![=fa]).[d^f] !>![=gb].[=f^g] | %164
 .[Ace].[^d^f] .[e^g].[fa] (!tenuto![egb]!fermata!B) | %165
!f!{/!fermata!x!fermata!x!fermata!x} .!fermata![ce_bc'] !>![_ab_d']2 .[gbd'].[_gbd'].[fbd'] | %166
!8va(! .[^c'^f'^a'^c''].[c'f'a'c''].[c'f'a'c''].[c'f'a'c'']!8va)!!mf! !>![^e^a].[^d^f] | %167
 !>![^fb].[^e^g]!<(! !>![g^c'].[f^a] !>![ad']!<)!.[gb] | %168
!f! !>![Dd]2 !>![_e^f_e']2!p! !>![g=c'].[=f_a] | %169
 !>![_a_d'].[g_b]!<(! !>![b_e'].[ac'] !>![c'_f']!<)!.[bd'] | %170
!f! !>![=E=e]2 !>![=f^g=f']2!p!!8va(! (3([^c'e']a[d'f'] | %171
 (3[e'g']a[e'g'] (3[f'a']aa') (3([bd']a[^c'e'] | (3[d'f']a[d'f'] (3[e'g']ag') (3(=c'a[bd'] || %173
[M:2/4] (3[^c'e']a[d'f'] (3[e'g']a(a') || %174
[M:3/4]!mf! (3b'[a'^c''][b'd''] (3[c''e'']a'[d''f''] (3[e''g'']a'[f''a''] | %175
 (3b'g'[a'^c''] (3[b'd'']g'[c''e''] (3[d''f'']g'[e''g'']) | %176
 .[f'a'].[g'_b'] .[a'c''].[b'd''] !>!!fermata![e'a'^c''e'']2!8va)! || %177
[K:Bb]!ff! !fermata!z2 !tenuto!!fermata![A,EA]2 !tenuto!!fermata![Ae]2 | !>!!fermata![_g_g']6 | %179
 z2 z!f! !fermata![A,EF] !fermata![A,EG]2 |"_cresc." [A,EGA]2 [B,EGB]2 [CEAc]2 | %181
 [DGBd]2 [EGBe]2 [G=Beg]2[Q:1/4=156]"^rit." | [Aega]2 [!courtesy!_Begb]2!f! [ce_gc']2 | %183
!ff![Q:1/4=144]"^Tempo rubato" z2 !tenuto!!fermata![dfad']3 !tenuto!f | !tenuto!f2 b4 | %185
!f! (!tenuto!a4[Q:1/4=150] _g2) | (!tenuto!_g4 d2) | %187
!f! z2 !tenuto!!fermata!f2 !tenuto!!fermata!e2 | !tenuto![Bd]2 !tenuto![Bc]2 !tenuto![Ad]2 | %189
 [F,A,EF]2 !>!!fermata![dfad']3 !>!!fermata!f | !arpeggio!!>![df]2 !>![Bdb]4 | %191
 ([Afa]2 !tenuto![^G=e^g]3) ([Afa] | !tenuto![=G_e=g]3)!>(! ([Afa]!>)! !tenuto![Ff]2) | %193
!f! x2 (!fermata!!courtesy!=c2 !fermata!f2 | g4 f2) | z2 (=e3 f) | %196
 (!tenuto!!fermata![F_Acf][=EAc=e]) (!tenuto![EAce][_EAc_e]) (!tenuto![EAce][DAcd]) | %197
!mp!"_cresc." z2 (!fermata!d2 !fermata!g2 | !tenuto!_a4 g2) | z2 (^f2 g2) | %200
 (!tenuto!!fermata![G_Bdg][^FBd^f]) (!tenuto![FBdf][=FBd=f]) (!tenuto![FBdf][=EBd=e]) | %201
 z2"_cresc." (!fermata!=e2 !fermata!a2 | b4 =b2) | %203
"^rit." !>!!fermata!c'2 !>!!fermata!^c'2 !>!!fermata!d'2 |!ff! !>![=fac'f']4 !>!e'2 | %205
[Q:1/4=132]"^a tempo" (!>![dd']2 [cc']4) | (!>![dd']2 [Bb]4) | (!>![dd']2 [Aa]4) | %208
 (!>![dd']2 [Gg]4) |"_sempre marcato" !fermata![dd']2 !>![_G_g]4 | %210
 !fermata![dd']2 !>!!fermata![Ff]4 | !fermata![dd']2 !>!!fermata![=E=e]4 | %212
 !fermata![dd']2 !>!!fermata![_E_e]4 |[Q:1/4=195]"^Presto" (3z z!p!!<(! (F, (3B,^CD (3F^FG!<)! | %214
 (3_A_cG (3_G!>(!FD (3_C_A,F,)!>)! | (3z z (_G, (3B,C_D!<(! (3_GB=B!<)! | %216
 (3ce_c!>(! (3BA_G (3E=CA,)!>)! | (3z z (D (3GB^c!<(! (3df^f!<)! | %218
 (3gb_g!>(! (3f=e_d (3B=G=E)!>)! | (3z z (_G (3Bc_d!<(! (3_gb=b!<)! | %220
 (3c'e'_c'!>(! (3ba_g (3e=cA)!>)! |!mp! (3z z!<(! d (3(!tenuto![=B=e]=E) z (3(!tenuto![cf]F) z | %222
 (3(!tenuto![e_a]_A) z (3(!tenuto![=ac']c) z!<)!!f! (3!>!!fermata![fc'f'][fc'f'] z | %223
!mp! (3z z!<(! =e (3(!tenuto![^c^f]^F) z (3(!tenuto![dg]G) z | %224
 (3(!tenuto![fb]B) z (3(!tenuto![bd']d) z!<)!!f! (3!>!!fermata![g_d'g'][gd'g'] z | %225
!mf!!8va(! (3z z!<(! ([ee'] (3:2:2[_a_c'd'_a']2) ([ee'] (3:2:2[gc'd'g']2) ([ee'] | %226
 (3:2:2[gbd'g']2) ([ee'] (3:2:2[_gbd'_g']2) ([ee']!f! (3:2:2[fad'f']2!<)! !fermata!e') | %227
!mf! (3z z!<(! ([=e=e'] (3:2:2[ac'^d'a']2) ([ee'] (3:2:2[^gc'd'^g']2) ([ee'] | %228
 (3:2:2[^g=b^d'^g']2) ([=e=e'] (3:2:2[=gbd'=g']2) ([ee']!f! (3:2:2[^f^ad'^f']2!<)! !fermata!e') | %229
 (3z z g' (3!>![c'e'g'c''][c'e'g'c''][c'e'g'c''] (3z [=be'g'=b'][be'g'b'] | %230
 z2 (3z [=be'g'=b'][be'g'b'] (3z [_be'g'_b'][be'g'b'] | %231
 z2 (3z [be'g'b'][be'g'b'] (3z [ae'g'a'][ae'g'a'] | %232
 (3z !fermata![_ae'_a']!fermata![ae'a'] !>!!fermata![g=ae'g']!>!!fermata![^fad'_g']!>!!fermata![=fa^c'f']!>!!fermata![=eac'=e'] | %233
!ff! (3!fermata!z z !fermata![fbd'f'] !fermata![g'b'd''g'']2[K:treble+8][Q:1/4=180]"^180" x2 | %234
 x4[K:treble] x2!8va)![Q:1/4=186]"^186" | x6[Q:1/4=192]"^192" | x6 | z2 !>!!fermata![B,DFB]4 | %238
 !>!!fermata![Be_gb]4!8va(! !>!!fermata![bc'=e'g'b']2!8va)! | %239
!ff! (3z !fermata!z !fermata![Bdfb] !fermata![Bdfb]4 |] %240
V:2
 ^G6 | (=G4 F2) | (E4 _E2) | (D2 _D2 C2) | (=B,2 _B,2 A,2) | x6 | x6 ||[K:Bb] x6 | x4[K:bass] x2 | %9
 x6 | x6 | x6 | x6 | x6 | x6 | x4/3[K:treble] x14/3 | x6 | x6 | x6 | x6 | x6 | x[K:bass] x5 | x6 | %23
 x4/3[K:treble] x14/3 | x6 | x6 | x6 | x6 | x6 | x6 | x6 | x6 | x6 | x6 | x6 | x6 | x6 | x6 | %38
 x3[K:bass] x3 | x6 | x6 | x6 | x4/3[K:treble] x14/3 | x6 | x6 | x6 | x6 | x6 | x6 | x6 | %50
 x5!8va(! x2 | x6!8va)! | x6 | x6 | x6 | x6 | z2 .[D^FA]2 !tenuto![B,GB]2 | x6 | x6 | %59
 z2 .[A,^C=E]2 !tenuto![^F,D^F]2 | x6 | x6 |[K:bass] x6 | x6 | x6 |[K:treble] x6 |[M:4/4] x8 | x8 | %68
 x8 | x8 | x8 | x8 | x8 | x6 (_G2 | [F=A]2 [=E_A]4 [_E=G]2) |[M:3/4] z G- ([Gc]D) ([G_c]B,) | %76
 ([DG]C) ([EA]_C) ([E_A][B,G]) | z (_C [DG]B,) ([D_G]=A,) | z (A, [_DF]_A,) ([D_F]G,) | z C GC FC | %80
 EA, E=A, D-[_A,-D] | A,G- ([Gc]D) ([G_c]B,) | (D_D) ([E=A]_C) ([E_A][B,G]) | (G^F =F =E2) (F | %84
 =E"_dim." _E2) (=E _ED) | z B, DB, [DF]B, | z B, [_DF]B, [DF]B, | z B, [=DF]B, [DF]B, | %88
 [_DF]=A, [DF]_A, [=DF]G, | z C =EC [EG]C | z C [_E_G]C [EG]C | z C [=E=G]C [EG]C | %92
 [!courtesy!_EG]=B, [EG]_B, [=EG]A, | z D ^FD [FA]D | z E [_Ac]E [Ac]=E | %95
 [=Bd][FBd] [Bd][^FBd] [Be][GBe] | [_B_d=e][GBd] [Bde][GBd] [ce][_Ac] | %97
 z ([_ce][B_d][_Ac] [Bd])[ce]- | [ce]([B_d][_A_c][GB] [Ac])[Bd]- | [Bd]([_A_c] [GB][FA][GB][Ac]-) | %100
 [Ac]([_A_c] [GB][FA][=EG][FA]) | z D ([F_A]C) ([FA]_C) | z B, ([EG]_A,) ([CE]G,) | %103
 z G, ([CE]^F,) ([B,D]G,) | z G, (_A,-[_F,A,]) (G,-[E,G,]) | x6 | x6 |[K:bass] x6 | x6 | %109
[K:treble] x6 | x16/3[K:bass] x2/3 | x6 | x6 | x2[K:treble] x4 | x3[K:bass] x3 || %115
[K:C][K:treble] x6 | x4[K:bass] x2 |[K:treble] x6 | x6 | x6 | x6 | %121
 !>!.[G_B][I:staff +1].[C^FA][I:staff -1] !>!.[C^FA][I:staff +1].[E,C] x2 | x6 | x6 | x6 | %125
[I:staff -1] !>!F,6 | !>![_g_g']6 | !>!F,6 | !>!_E6[K:bass] |[K:treble] x6 | x6 | x6 | x6 | %133
 (!tenuto![_A_c]2 [G_B]2) x2 | (!tenuto![G_B]2 [^FA]2) x2 | (!tenuto![^FA]2 [^E^G]2) x2 | %136
 (!tenuto![^E^G]2 [=E=G]2) x2 | !>!^F,6 | !>![gg']6 | !>!^F,6 | !>!E6[K:bass] |[K:treble] x6 | x6 | %143
 x6 | x6 | x6 | x6 | x6 | x6 | x6 | x6 | x6 | x6 | z (^C AC) (_BD) | z (D _BD) (=B_E) | %155
 z ^D BD cE | cE ^cF x2 | x6 | x6 | x6 | x6 |!8va(! x4!8va)! x2 | x6 | x6 | x6 | x6 | %166
!8va(! x4!8va)! x2 | x6 | x2 (_ba) x2 | x6 | x2 c'=b!8va(! x2 | x6 | x6 ||[M:2/4] x4 ||[M:3/4] x6 | %175
 x6 | x6!8va)! ||[K:Bb] !>!F,6 | z2 !tenuto!!fermata![_ce_c']2 !tenuto!!fermata![EB]2 | !>!F,6 | %180
 x6 | x6 | x6 | z [A,DF] z [FA][Ad][FA] | [FBd][DB] [Bc][CEB] [Bd][DFB] | %185
 !arpeggio![Ace][I:staff +1]!arpeggio![E,A,C_G]"^150"[I:staff -1] !arpeggio![CE_A][I:staff +1]!arpeggio![_G,CE=A][I:staff -1] !arpeggio![_G=A_c][I:staff +1]!arpeggio![A,EG=c] | %186
[I:staff -1] !arpeggio![_G_A_c][I:staff +1]!arpeggio![F,_A,E][I:staff -1] !arpeggio![_CD=E][I:staff +1]!arpeggio![A,_CF][I:staff -1] !arpeggio![DF=G][I:staff +1]!arpeggio![CD_A] | %187
[I:staff -1] z [DGB] [GB][DGB] [GB][EGB] | (D=E) (C_E) (DE) | %189
 z [A,DF] z !tenuto![FAef]!tenuto![=EA=e]!tenuto![_EA_e] | %190
 [DB][DB] x2 !tenuto![_G,B,_E]!tenuto![F,B,D] | d^c (!fermata!=c =B2) c | %192
 (!fermata!=B _B2) c ([B^c][Ad]) | z [!courtesy!=CFA][FA][CFA] [Ac][FAc] | %194
 z [CE_A][EAc][CEA] [Ac][FAc] | z [F=A][Ac][FA] [Ac][F-A] | x6 | z [DG=B][GB][DGB] [Bd][GBd] | %198
 z [_DF_B][FB_d][DFB] [Bd][GBd] | z [^F=B!courtesy!=d][Bd][FBd] [Bd][G-Bd] | x6 | %201
 z [A^c] [Ac][Ad] [Ad][B_e] | [Be][B=e] [Be][=Bf] [Bf][!courtesy!=c^f] | %203
 [cd^f]!tenuto![cdf=b] !tenuto![^cfb]!tenuto![cf_b] !tenuto![dfb]!tenuto![dfa] | %204
 z [!courtesy!=cfa][cfa][cf_a] [efae'][=Bfg] | !fermata!z [F_Bef]2 [_GBe_g]2 !fermata![_ABe_a] | %206
 !fermata!z [=EBd=e]2 [FBdf]2 !fermata![_GBd_g] | !fermata!z [_EA_e]2 [=EA=e]2 !fermata![FAf] | %208
 !fermata!z [DBd]2 [EBe]2 !fermata![=EB=e] | z [Bd]2 !fermata![Bd]2 !fermata![Bd] | %210
 z [Bd]2 !fermata![Bd]2 !fermata![Bd] | z [Bd]2 !fermata![Bd]2 !fermata![Bd] | %212
 z !fermata![Ad]2 !fermata![FAd]2 !fermata![FAd] | x6 | x6 | x6 | x6 | x6 | x6 | x6 | x6 | x6 | %222
 x6 | x6 | x6 |!8va(! x6 | x6 | x6 | x6 | x6 | x6 | x6 | x6 | x4[K:treble+8] x2 | %234
 x4[K:treble] x2!8va)! | x6 | x6 | x6 | x4!8va(! x2!8va)! | x6 |] %240
V:3
!p! [E,B,D]6 | ([_B,D]4 [A,C]2) | _B,6 | (F,2 =E,2 _E,2) | (D,2 _D,2 C,B,,) | %5
 !tenuto![C,,C,]3 !tenuto![A,,,C,]3 | [C,,G,,C,]6 || %7
[K:Bb]!ped! [F,,,F,,]2 [G,B,_D=EG]2[K:treble] (3gf=e | x2!ped-up![K:bass]!ped! x2 z2!ped-up! | %9
 [B,,,F,,]2 z2 z2 | [B,,,F,,]2 z2 z2 | [B,,,F,,][B,,,F,,] [B,,,F,,]2 [B,,,F,,]2 | %12
 z2 [B,,,F,,][B,,,F,,] [B,,,F,,]2 | z .[B,,,D,,] .=E,,.[B,,,D,,] .F,,.[B,,,D,,] | %14
 ._G,,.[B,,,D,,] .F,,.[B,,,D,,] .=E,,(B,,,, | %15
!ped! (3:2:2!>!B,,,2) (_G,, (3B,_D,G,, (3:2:2B,,,2) (B,,,,!ped-up! | %16
!ped! (3:2:2!>!B,,,2) (_G,, (3B,_D,G,,!ped-up!!ped! (3:2:2B,,,2) (B,,,, | %17
 (3:2:2!>!B,,,2) (_G,,!ped-up!!ped! (3B,_D,G,, (3:2:2B,,,2) (B,,,,!ped-up! | %18
!ped! (3:2:2!>!B,,,2) (_G,, (3B,_D,G,,!ped-up! (3:2:2B,,,2) (B,,,, | %19
 (3:2:2!tenuto!B,,,2) [F,B,=D] (3(F=E_E (3DB,_G, | (3F,=E,_E, (3D,C,B,, (3A,,!>(!G,,_G,, | %21
 [B,,,F,,])!>)!.[B,,,D,,] .=E,,.[B,,,D,,] .F,,.[B,,,D,,] | %22
 ._G,,.[B,,,D,,] .F,,.[B,,,D,,] .=E,,(B,,,, | %23
!ped! (3:2:2!>!B,,,2) (_G,, (3B,_D,G,, (3:2:2B,,,2) (B,,,,!ped-up! | %24
!ped! (3:2:2!>!B,,,2) (_G,, (3B,_D,G,,!ped-up!!ped! (3:2:2B,,,2) (B,,,, | %25
 (3:2:2!>!B,,,2) (_G,,!ped-up!!ped! (3B,_D,G,, (3:2:2B,,,2) (B,,,,!ped-up! | %26
!ped! (3:2:2!>!B,,,2) (_G,, (3B,_D,G,,!ped-up! (3:2:2B,,,2) (B,,,, | %27
 (3:2:2B,,,2) F, (!>!F2- (3F=E_E | (3DCB, (3A,_A,G, (3B,,E,,) z | %29
 (3(F=E_E) (3:2:2D2[K:treble] B, (3([DB]A_A | (3:2:2G2) D (3([^Fd]^c=c [GB]2) | %31
[K:bass]!ped! (3:2:2[E,,,E,,]2 (B,, (3:2:2G,2) (^C,!ped-up! A,2) | %32
!ped! (3:2:2[G,,,G,,]2 (D,!ped-up! (3:2:2B,2)!ped! (E, ^C2)!ped-up! | %33
!ped! (3:2:2[B,,,B,,]2 (G,!ped-up! (3:2:2E2)!ped! (A, ^F2)!ped-up! | %34
!ped! (3:2:2[E,,E,]2 (B,!ped-up! (3:2:2G2)!ped! (^C A2)!ped-up! |[K:treble] z2 [DG]2 [B,^C^F]2 | %36
 [DG]2 [_A,_C=F]2 [B,DG]2 |[K:bass] [_G,B,=E]2 [F,_A,DF]2 [E,G,=A,]2 | %38
 [B,,F,B,D]2 z !>![B,,,F,,] !>![B,,,F,,]2 | z !>![B,,,F,,] !>![B,,,F,,]2 z [B,,,F,,] | %40
 .[B,,,F,,].[B,,,,B,,,] .[=E,,,=E,,].[B,,,,B,,,] .[F,,,F,,].[B,,,,B,,,] | %41
 .[_G,,,_G,,].[B,,,,B,,,] .[F,,,F,,].[B,,,,B,,,] .[=E,,,=E,,](B,,,, | %42
!ped! (3:2:2!>!B,,,2) (_G,, (3B,_D,G,, (3:2:2B,,,2) (B,,,,!ped-up! | %43
!ped! (3:2:2!>!B,,,2) (_G,, (3B,_D,G,,!ped-up!!ped! (3:2:2B,,,2) (B,,,, | %44
 (3:2:2!>!B,,,2) (_G,,!ped-up!!ped! (3B,_D,G,, (3:2:2B,,,2) (B,,,,!ped-up! | %45
!ped! (3:2:2!>!B,,,2) (_G,, (3B,_D,G,,!ped-up! (3:2:2B,,,2) (B,,,, | %46
!ped! (3:2:2B,,,2) F,!ped-up!!ped! (!>!F2-!ped-up!!ped! (3F=E_E!ped-up! | %47
!ped! (3DCB,!ped-up!!ped! (3A,_A,G,!ped-up!!ped! (3B,,E,,)!ped-up! z | %48
!ped! (3:2:2C,,2 G,!ped-up!!ped! (!>!G2-!ped-up!!ped! (3GF=E!ped-up! | %49
!ped! (3_ED_D!ped-up!!ped! (3CB,A,!ped-up!!ped! (3C,F,,) z!ped-up! | %50
[K:treble]{/D,} x (!tenuto![=B,F]2 (3:2:2[C^F]2) G, (!tenuto![D-=E_B]2 | %51
 (3:2:2[DF=B]2) C (!tenuto![Ae]2 [_B=e]2) | [FA_e]2 [B,FB]2[K:bass] [D,A,D]2 | %53
 [G,,D,G,]2 [_A,,E,]2 [B,,,F,,B,,]2 |!ped! !>![D,D]4 !>![D,,,D,,]2!ped-up! | %55
 (3(C,D,E, .[B,,F,]2) !tenuto![E,,B,,E,]2 | !>!G,6 |!ped! !>![D,D]4 !>![D,,,D,,]2!ped-up! | %58
 (3(G,,A,,B,, .[F,,C,]2) !tenuto![B,,,F,,B,,]2 | !>!G,4 x2 | %60
!ped! !tenuto!D4 !tenuto![D,,,D,,]2!ped-up! | (3(!>!E,D,_D, (3C,_C,B,,"^dim." (3_G,,E,,D,, | %62
 (3_D,,C,,_C,, (3B,,,_G,,,E,,,) (3(D,,=C,,_C,, | (3B,,,_G,,,E,,,) (3(_D,,C,,_C,, (3B,,,G,,,E,,,) | %64
 ._D,,2 .C,,2 .B,,,2 | .!fermata!_G,,,2 .!fermata!E,,,2!p! (3.[A,,D,^F,A,]z([B,,D,G,B,] | %66
[M:4/4] !tenuto![A,,D,^F,A,]4) [^G,,D,=F,^G,]2 (3.[=G,,C,=E,=G,]z([_A,,C,-F,_A,] | %67
 !tenuto![G,,C,=E,G,]4) .[^F,,C,_E,^F,]2 (3.[=F,,B,,D,=F,]z([_G,,B,,-E,_G,] | %68
 [F,,B,,D,F,]2) .[=E,,B,,^C,=E,]2 !tenuto![E,,A,,C,E,]4 | %69
 !tenuto![D,,A,,^F,]2 (3(ED_D!>(! (3C_CB,)!>)!!p! (3.[A,,D,F,A,]z[B,,D,-G,B,] | %70
 ([A,,D,^F,A,]4 !tenuto![_A,,_D,=F,_A,]2) (3[G,,C,=E,G,]z([A,,C,-F,A,] | %71
 [G,,C,=E,G,]4) !tenuto![^F,,_C,_E,^F,]2 (3[=F,,B,,D,=F,]z([_G,,B,,-E,_G,] | %72
 .[F,,B,,D,F,]2) .[=E,,B,,^C,=E,]2 !tenuto![_E,,A,,_E,]4 | %73
 !tenuto![D,,A,,^F,]2 (3(_GF=E (3_ED_D-) (3(DC_C | %74
 (3B,A,B, (3!fermata!_C!fermata!B,!fermata!=B, (3!fermata!=C!fermata!B,!fermata!C (3!fermata!_D!fermata!C!fermata!D) | %75
[M:3/4]!p! (E,,!fermata!B,,) ([_A,E]B,,) ([A,D]B,,) | (E,,B,,) (!fermata![^F,C]B,,) ([G,_C]B,,) | %77
 (E,,!fermata!_C,) (!fermata!_C!fermata!C,) (B,C,) | (E,,B,,) (!fermata!A,B,,) (_A,B,,) | %79
 (_A,,E,) ([B,E]!fermata!E,) (=B,E,) | (=A,C,) (_A,!fermata!_C,) (!fermata!G,B,,-) | %81
!p! !fermata![E,,B,,]!fermata!B,, (!fermata![_A,E]B,,) ([A,D]B,,) | %82
 (E,,B,,) ([^F,C]B,,) ([G,_C]B,,) | (G,,D, [=A,^C]2) (G,,D, | [_A,^C]2) (G,,D, [G,B,]2) | %85
!p!!ped! z (F,, [B,,D,=A,]F,,)!ped-up!!ped! ([B,,D,_A,]F,,)!ped-up! | %86
!ped! z (!fermata!F,, !fermata![B,,_D,G,]F,,)!ped-up! ([B,,D,_A,]F,,) | %87
 (B,,,F,, [B,,=D,=A,]F,,) ([B,,D,_A,]F,,) | (_D,,G,, [_D,F,=A,]G,,) ([=D,F,=B,]G,,) | %89
!ped! z (G,, [C,=E,=B,]G,,)!ped-up!!ped! ([C,E,_B,]G,,)!ped-up! | %90
!ped! z (_G,, !fermata![C,_E,A,]G,,)!ped-up! ([C,E,B,]G,,) | %91
 (C,,G,, [C,=E,=B,]G,,) ([C,E,_B,]G,,) | A,,, (A,,[_E,G,=B,]A,,) ([=E,G,^C]A,,) | %93
 D,, (A,,[D,^F,^C]A,,) ([D,F,=C]A,,) | z (D,[C^F]_A,) ([CG]A,) | %95
 [G,,,G,,] ([D,F,=B,][^F,B,D][D,F,B,]) ([G,B,E]!fermata![E,G,B,]) | %96
 !fermata![C,,=E,]!f! (!fermata![E,B,_D]!fermata![B,=DE][B,D])[K:treble] ([C=EB][B,CE]) | %97
[K:bass] F,, (E,!fermata![_CF]_A,) ([EG]C) | G,, (E,!fermata![B,E]E,) (FG) | %99
 _A,, (E,!fermata![_A,_CD]F,) ([CE]A,) | %100
 B,,, (!fermata!B,,!fermata![_A,=C]!fermata!B,,) (!fermata!_D!fermata!=D) | %101
!mf! (E,,B,, !tenuto![_A,_D]B,,) (!tenuto![A,C]B,,) | (E,,B,, !tenuto!=A,B,,) (!tenuto!_A,B,,) | %103
 (E,,B,, !tenuto!G,!fermata!B,,) (!tenuto!!fermata!^F,{/!fermata!x}!fermata!B,,) | %104
!p! (!fermata!E,,!fermata!B,, !tenuto!!fermata!!courtesy!=F,!fermata!B,,) (!tenuto!!fermata!_F,!fermata!B,,) | %105
!ped! z2 !>![^F,A,CE^F]2 (3:2:2x[K:treble] x2 | x2!ped-up![K:bass]!ped! x4!ped-up! | %107
 .[C,,G,,]2 z2 .[C,,G,,]2 | z2 .[C,,G,,].[C,,G,,] .[C,,G,,]2 | %109
!ped! z2 !>![^F,A,CE^F]2[K:treble] (3g^fe | %110
 (3c[I:staff -1]G^F!ped-up!!ped![I:staff +1] x2[K:bass] (3G,^F,[I:staff -1](_E,-!ped-up! | %111
[I:staff +1] [C,,G,,]2) z .[C,,^F,,] .[C,,G,,]2 | z .[C,,^F,,] .[C,,G,,]2 z .[G,,,G,,] | %113
 .[_A,,,_A,,]2 .[E,_A,_CE].[D,D].[_D,_D].[=C,=C] | ([_C,_C]E,) .[D,,D,].[_D,,_D,] ([_C,,C,]E,,) || %115
[K:C]"^m.d."!ped! z2 !>![G,^A,^CEG]4 |[K:treble] e/^c/^A/G/!ped-up!!ped! z2 z2!ped-up! | %117
[K:bass]!ped! (!>!!fermata![E,,,E,,]=C, [E,A,C]C,E,,E,,,!ped-up! | %118
!ped! !>!E,,)(C, !fermata![E,A,C]/[E,A,C]/C,!ped-up!!ped!E,,E,,, | %119
 !>!E,,)(C,!ped-up!!ped! [E,A,C]C,E,,E,,,!ped-up! | %120
!ped! !>!E,,)(C, !fermata![E,A,C]/[E,A,C]/C,!ped-up!!ped!E,,E,,,)!ped-up! | %121
!ped! x2!ped-up!!ped! x2!ped-up! z2 | %122
!p!!ped![I:staff -1] .[^FA][I:staff +1].[C=F_A]!ped-up!!ped![I:staff -1] !>!.[C=F_A][I:staff +1].[E,C]!ped-up! z2 | %123
!ped![I:staff -1] .[F_A][I:staff +1].[B,EG]!ped-up!!ped![I:staff -1] !>![B,EG][I:staff +1].[E,B,]!ped-up! z2 | %124
!ped![I:staff -1] .[EG][I:staff +1].[_B,E_G]!ped-up!!ped![I:staff -1] !>![_B,E_G][I:staff +1].[C,B,]!ped-up! z2 | %125
!ped! (3z z [C,A,]!<(! (3C_E_G x2!ped-up!!<)! | %126
!ped! z2[K:treble] !tenuto![_C_E=A]2[K:bass] !tenuto![_E,_B,]2!ped-up! | %127
!ped! (3z z [C,A,] C2 (3CA,_G,!ped-up! |!ped! (3z (_C,_B,,!ped-up! (3A,,_G,,_E,,) z2 | %129
!ped! !>!!fermata![F,,,F,,](_D, [F,_B,_D]D,F,,F,,,!ped-up! | %130
!ped! !>!F,,)(_D, !fermata![F,_B,_D]/[F,B,D]/D,!ped-up!!ped!F,,F,,, | %131
 !>!F,,)(_D,!ped-up!!ped! [F,_B,_D]D,F,,F,,,!ped-up! | %132
!ped! F,,)(_D, !fermata![F,_B,_D]/[F,B,D]/D,!ped-up!!ped!F,,F,,,)!ped-up! | %133
[K:treble] (3z!f! (G_G (3FE_D F,) z | (3z (_GF (3E=D^C F,) z | (3z (FE (3^D=D^C ^E,) z | %136
[K:bass] (3z (D^C (3=CB,^C,) z2 |!p!!ped! (3z z ^C,!<(! (3^A,^CE x2!ped-up!!<)! | %138
!ped! z2 !tenuto![=CE_B]2 !tenuto![E,B,]2!ped-up! |!mf!!ped! (3z z [^C,^A,] ^C2 (3CA,G,!ped-up! | %140
!ped! (3z (=C,B,,!ped-up! _B,,2) z2 |!ped! !>!!fermata![^F,,,^F,,](D, [^F,B,D]D,F,,F,,,!ped-up! | %142
!ped! !>!^F,,)(D, !fermata![^F,B,D]/[F,B,D]/D,!ped-up!!ped!F,,^F,,, | %143
 !>!^F,,)(D,!ped-up!!ped! [^F,B,D]D,F,,^F,,,!ped-up! | %144
!ped! !>!^F,,)(D, !fermata![^F,B,D]/[F,B,D]/D,!ped-up!!ped!F,,!fermata!^F,,,!ped-up! | %145
!ped! !fermata![D,,,D,,])(_B,, [D,G,_B,]B,,D,,D,,,!ped-up! | %146
!ped! D,,)(_B,, [D,G,_B,]B,,!ped-up!!ped!D,,D,,, | %147
 D,,)(_B,,!ped-up!!ped! [D,G,_B,]B,,D,,D,,,!ped-up! | %148
!ped! D,,)(_B,, [D,G,_B,]B,,!ped-up!!ped!D,,D,,,!ped-up! | %149
!ped! (3:2:2D,,2) (^F, (3:2:2[CE]2)!ped-up! (G,!ped! (3:2:2[^C^E]2) A,!ped-up! | %150
!ped! (3:2:2[D^F]2 (^A,!ped-up!!ped! (3:2:2[DG]2) (B,!ped-up! [D^G]2) | %151
!ped! (3:2:2[E,,B,,]2 (G, (3:2:2[D^F]2)!ped-up! (A,!ped! (3:2:2[^DG]2) (B,!ped-up! | %152
!ped! (3:2:2[E^G]2) (C!ped-up!!ped! (3:2:2[EA]2) (^C!ped-up! [E_B]2) | %153
!mf!!ped! (3:2:2[^F,,,^F,,]2 ^C, A,2!ped! _B,2!ped-up! | %154
!ped! (3:2:2[G,,,G,,]2 D, _B,2!ped-up!!ped! =B,2!ped-up! | %155
 (3:2:2[^G,,,^G,,]2 (E, (3=D^C=C (3B,^A,=A, | (3^G,=G,^F, (3=F,E,_E,)!p! (3([A,,D,]^F,A, | %157
 (3:2:2D2) E (3(^FGA .[^CE_B]2) | (3(A,,E,G, (3_B,^CG .[=C_EA]2) | %159
 (3z ([A,,E,]G, (3_B,^CG !tenuto![A,D^F]2) | %160
!f! !arpeggio!.[_B,,=F,_A,D][K:treble] !>![_G_A_c]2 !>![_FAc]2 .[_EAc] | %161
 !>![D=E^Gd]!>![^CEG^c]!>![=CEG=c]!>![B,EGB][K:bass]!p! (3(B,,^G,B, | %162
 (3:2:2E2)[K:treble] ^F (3(^GAB .[^DFc]2) |[K:bass] (3(B,,^F,A, (3C^DA .[=D=FB]2) | %164
 (3z ([B,,^F,]A, (3C^DA !tenuto![B,E^G]2) | %165
!f! !arpeggio!.[C,=G,_B,E][K:treble] !>![_A_B_d]2 .[GBd].[_GBd].[FBd] | %166
 !>![E^F^Ae]!>![^DFA^d]!>![=DFA=d]!>![^CFA^c][K:bass]!mf! (3(^C,^A,^C | %167
[K:treble] (3!>!^GDB, (3!>!^A=E^C !>![D=FB]2) | %168
[K:bass] !>![D,,D,]2 !>![^F,C_E^F]2[K:treble] (3(_E,C_E | (3!>!_BE_D (3!>!c_G_E !>![_F=G_d]2) | %170
[K:bass] !>![=E,,=E,]2 !>![^G,D=F^G]2[K:treble]{/x-} (3[A,E^c]z([Ad] | %171
 (3:2:2!tenuto![^ce]2) (F (3:2:2!tenuto![Af]2) (A, (3[DB])z([Gc] | %172
 (3:2:2!tenuto![Bd]2) (^C (3:2:2!tenuto![G_Be]2) A, .[=CFA].=B || %173
[M:2/4] .[FA^c].[Bd] (!tenuto![Ace]E) ||[M:3/4]!mf!!ped! (3(aeA) (3(AE!ped-up!A, !tenuto![Fc]2) | %175
!ped! (3(gdG) (3(GDA,!ped-up! [EG_B]2) |!ped! (3([A,C]FA (3_Bdf!ped-up! !>![A^ce]2) || %177
[K:Bb][K:bass]!ped! z2 !tenuto![C,F,]2!ped-up! !tenuto![F,CF]2 | %178
!ped! !>![_G,_G]6[K:treble][K:bass]!ped-up! |!ped! z2 z D, C,F,,!ped-up! | %180
 D,F,, E,F,,!ped! [C,^F,]!courtesy!=F,,!ped-up! | %181
!ped! [C,G,]F,,!ped-up!!ped! !fermata![C,B,]!fermata!F,,!ped-up!!ped! !fermata![E,=B,]!fermata!F,,!ped-up! | %182
!ped! !fermata![G,D]!fermata!F,,!ped-up!!ped! !fermata![G,C]!fermata!F,,!ped-up!!ped! !fermata![_G,B,]!fermata!F,,!ped-up! | %183
"^m.d."!ff!!ped! !fermata!x !fermata![F,,E,F,] [A,EFA]!fermata![F,A,E] !fermata![G,EF][F,A,E]!ped-up! | %184
!ped! !fermata![B,,,F,,][F,,B,,D,F,] [B,CEG]F,!ped-up!!ped! [B,DF]!fermata!F,!ped-up! | %185
!ped! !arpeggio!!fermata!x!f! !fermata!x x2 !arpeggio!x x!ped-up! | %186
!ped! !arpeggio!!fermata!x !fermata!x!ped-up! x2 !arpeggio!x !arpeggio!!fermata!x | %187
!f!!ped! E,,(!fermata![B,,G,]!ped-up! [G,^C]!fermata![B,,G,])!ped-up!!ped! ([G,D]!fermata![B,,G,]) | %188
!ped! ([D,B,][G,,=E,])!ped-up!!ped! (!fermata![C,B,]!fermata![_G,,_E,])!ped-up!!ped! ([D,A,][F,,E,])!ped-up! | %189
!ped! !fermata!z !fermata![F,,E,F,] [A,EFA]!fermata![F,,E,A,] [A,CG]!ped-up!!ped![F,C]!ped-up! | %190
!ped! !fermata!z!ped-up! !fermata![F,,D,F,] !tenuto![A,B,DF]!tenuto![G,B,=E] (F,,B,,,) | %191
 ([D,,,D,,][A,,F,]) !tenuto![^G,=E]3 x | !tenuto![=G,_E]3 x (!fermata![B,^C]!fermata![A,D]) | %193
!ped! F,,,!f! [F,,C,E,][C,E,A,]!ped-up![F,,C,E,] [F,A,E][C,F,A,] | %194
!ped! !fermata!F,,, [F,,C,E,][C,E,_A,][F,,C,E,] [F,A,E][C,F,A,]!ped-up! | %195
!ped! F,,, [F,,C,E,]!fermata![C,E,=A,]!fermata![F,,C,E,]!ped-up! [F,A,_E][C,F,A,] | %196
!ped! z [_A,,D,] [_E,C][A,,=E,] [F,C][A,,^F,]!ped-up! | %197
!ped! G,,, [G,,D,!courtesy!=F,][D,F,=B,][G,,D,F,] [G,B,F][D,G,B,]!ped-up! | %198
!f!!ped! !fermata!G,,, [G,,_D,F,][D,F,_B,][G,,D,F,] [G,B,F][D,G,B,]!ped-up! | %199
!ped! G,,, [G,,D,=F,]!fermata![D,F,=B,]!fermata![G,,D,F,]!ped-up!!ped! [G,B,=F]!fermata![D,G,B,] | %200
!ped! z [B,,=E,] [F,D][B,,^F,] [G,D][B,,^G,]!ped-up! | %201
!ped! z [=E,!courtesy!=G,^C] [E,G,C][F,A,D] [F,A,D][^F,C_E]!ped-up! | %202
 !fermata![^F,!courtesy!=CE][G,^C=E] [G,CE][^G,DF] [G,DF][A,_E^F] | %203
!ped! z !fermata![=B,C^F=B]!ped-up!!ped! [B,^CFB]!fermata![_B,CF_B]!ped-up!!ped! [B,CFB]!fermata![A,=CDFA]!ped-up! | %204
!ff!!ped! !fermata!z!f! !fermata![D,A,C=F]!fermata![A,CFA]!fermata![_A,CF_A]!ped-up!!ped! !fermata![A,=B,FA]!fermata![G,B,FG]!ped-up! | %205
 [C,,C,]2 !tenuto!C4 | [D,,D,]2 !tenuto!B,4 | [_E,,_E,]2 !tenuto!A,4 | %208
 [=E,,=E,]2 !tenuto!!courtesy!=G,4 | [F,,,F,,]2 !>![_G,,_G,]4 | [F,,,F,,]2 !>![=G,,=G,]4 | %211
 [F,,,F,,]2 !>![_A,,_A,]4 | [F,,,F,,]2 !>![=A,,=A,]4 | %213
 (3:2:2!>![B,,,,B,,,]2 (F,, [B,,D,]F,) (3z (^F,G, | [=F,_A,]_CA,F,D,F,,) | %215
 (3:2:2!>!B,,,2 (_G,, _D,_G,) (3z (B,=B, |!p! CE_CB,A,_G,) | %217
 (3:2:2!>!B,,,2 (D, [G,B,]D) (3z[K:treble] (F^F | GB_GF=E_D) | %219
[K:bass] B,,, (_G,[B,E]_G) (3z[K:treble] (B=B | ce_cBA_G) | %221
[K:bass]!ped! (3:2:2B,,,2 (F,!ped-up!!ped! (3:2:2[_A,=B,]2) (C-!ped-up!!ped! (3:2:2[A,CF]2) (=E!ped-up! | %222
!ped! (3_ED_D!ped-up!!ped! (3C_A,F,!ped-up!!ped! (3:2:2E,2 !fermata!=D,)!ped-up! | %223
!ped! (3:2:2B,,,2 (G,!ped-up!!ped! (3:2:2[B,^C]2) (D-!ped-up!!ped! (3:2:2[B,DG]2) (_G!ped-up! | %224
!ped! (3F=E_E!ped-up!!ped! (3DB,G,!ped-up!!ped! (3:2:2F,2 !fermata!=E,)!ped-up! | %225
!ped! (3:2:2B,,,2 (F,!ped-up!!ped! (3:2:2[_CE_A]2) (F,!ped-up!!ped! (3:2:2[CE=A]2)[K:treble] (=C!ped-up! | %226
!ped! (3:2:2[EGB]2) (B,!ped-up!!ped! (3:2:2[E_G_c]2) (A,!ped-up!!ped! [EF=c]2)!ped-up! | %227
[K:bass]!ped! (3:2:2[B,,,B,,]2 (^F,!ped-up!!ped! (3:2:2[C=EA]2) (F,!ped-up!!ped! (3:2:2[CE^A]2)[K:treble] (^C!ped-up! | %228
!ped! (3:2:2[=E^G=B]2) (=B,!ped-up!!ped! (3:2:2[E=G=c]2) (^A,!ped-up!!ped! [E^F^c]2)!ped-up! | %229
[K:bass]!ped! (3:2:2[B,,,B,,]2 (G, [CEG]2)!ped-up!!ped! (3[_A,CE_A][A,CEA] z!ped-up! | %230
!ped! [B,,,B,,]2 (3[_A,CE_A][A,CEA] z!ped-up!!ped! (3[=A,CE=A][A,CEA] z!ped-up! | %231
!ped! [B,,,B,,]2[K:treble] (3[A,CEA][A,CEA] z!ped-up!!ped! (3[B,CEB][B,CEB] z!ped-up! | %232
!ped! (3[=B,CE=B][B,CEB] z !>![CEAc]!>![C=EAc]!>![^CFA^c]!>![C^FAc]!ped-up! | %233
[K:bass]!ped! (3z z [F,B,DF]!ped-up! [F,B,DF]2[K:treble]!ped-up!!ped! [fbd'=e']/[I:staff -1][f'bd'f']/[I:staff +1][Fbd'e']/[I:staff -1][f'bd'f']/ | %234
!ped![I:staff +1] [dgb^c']/[I:staff -1][d'f'b'd'']/[I:staff +1][dgbc']/[I:staff -1][d'f'b'd'']/!ped-up!!ped![I:staff +1] [Bdfa]/[I:staff -1][bd'f'b']/[I:staff +1][Bdfa]/[I:staff -1][bd'f'b']/!ped-up!!ped![I:staff +1] [FBd=e]/[I:staff -1][fbd'f']/[I:staff +1][FBde]/[I:staff -1][fbd'f']/!ped-up! | %235
!ped![I:staff +1] [DGB^c]/[I:staff -1][dfbd']/[I:staff +1][DGBc]/[I:staff -1][dfbd']/!ped-up!!ped![I:staff +1] [B,DFA]/[I:staff -1][Bdfb]/[I:staff +1][B,DFA]/[I:staff -1][Bdfb]/!ped-up![I:staff +1][K:bass]!ped! [F,B,D=E]/[I:staff -1][FBdf]/[I:staff +1][F,B,DE]/[I:staff -1][FBdf]/!ped-up! | %236
!ped![I:staff +1] [D,G,B,^C]/[I:staff -1][DFBd]/[I:staff +1][D,G,B,C]/[I:staff -1][DFBd]/!ped-up!!ped![I:staff +1] [B,,D,F,A,]/[I:staff -1][B,DFB]/[I:staff +1][B,,D,F,A,]/[I:staff -1][B,DFB]/!ped-up!!ped![I:staff +1] [F,,B,,D,=E,]/[I:staff -1][F,B,DF]/[I:staff +1][F,,B,,D,E,]/[I:staff -1][F,B,DF]/!ped-up! | %237
[I:staff +1] !fermata!z2 !>![_A,,D,F,_A,]4 | !>![=A,E_G=A]4 !>![=G,C=EB]2 | %239
"^m.d." (3z z [F,,B,,D,F,] !fermata![F,B,DF]4 |] %240
V:4
 x6 | x6 | (G,4 _G,2) | _B,,6 | G,,4 F,,2 | x6 | x6 ||[K:Bb] x4[K:treble] x2 | x2[K:bass] x4 | x6 | %10
 x6 | x6 | x6 | x6 | x6 | x6 | x6 | x6 | x6 | x6 | x6 | x6 | x6 | x6 | x6 | x6 | x6 | x6 | x6 | %29
 x2 (3x x[K:treble] B,- B,2 | (3:2:2E2 D- D2 E2 |[K:bass] x6 | x6 | x6 | x6 |[K:treble] x6 | x6 | %37
[K:bass] x6 | x6 | x6 | x6 | x6 | x6 | x6 | x6 | x6 | x6 | x6 | x6 | x6 |[K:treble] x A,4 x2 | %51
 x2 G4 | x4[K:bass] x2 | x6 | x6 | x6 | z2 .[D,A,]2 !tenuto![G,,D,G,]2 | x6 | x6 | %59
 z2 .[A,,=E,]2 !tenuto![D,,A,,D,]2 | x6 | x6 | x6 | x6 | x6 | x6 |[M:4/4] z2 D,,2 x4 | z2 D,,2 x4 | %68
 x8 | x8 | z2 D,,2 x4 | z2 D,,2 x4 | x8 | x8 | x8 |[M:3/4] x6 | x6 | x6 | x6 | x6 | x6 | x6 | x6 | %83
 x6 | x6 | B,,,6 | B,,,6 | x6 | x6 | C,,6 | C,,6 | x6 | x6 | x6 | x6 | x6 | x4[K:treble] x2 | %97
[K:bass] x6 | x4 [B,E]2 | x6 | x4 _A,2 | x6 | x6 | x6 | x6 | [G,,,G,,]6[K:treble] | x2[K:bass] x4 | %107
 x6 | x6 | [G,,,G,,]6[K:treble] | x4[K:bass] x2 | x6 | x6 | x6 | x6 ||[K:C] [B,,,,B,,,]6 | %116
[K:treble] x6 |[K:bass] x6 | x6 | x6 | x6 | x6 | x6 | x6 | x6 | !>![F,,,F,,]6 | %126
 !>![_G,_G]6[K:treble][K:bass] | [F,,,F,,]6 | !>![_E,,_E,]6 | x6 | x6 | x6 | x6 |[K:treble] x6 | %134
 x6 | x6 |[K:bass] x6 | !>![^F,,,^F,,]6 | !>![G,G]6 | !>![^F,,,^F,,]6 | !>![E,,E,]6 | x6 | x6 | %143
 x6 | x6 | x6 | x6 | x6 | x6 | x6 | x6 | x6 | x6 | x2 (3A,^C,^F,, (3_B,D,F,, | %154
 x2 (3_B,D,G,, (3=B,_E,G,, | x6 | x6 | x6 | x6 | x6 | x[K:treble] x5 | x4[K:bass] x2 | %162
 x4/3[K:treble] x14/3 |[K:bass] x6 | x6 | x[K:treble] x5 | x4[K:bass] x2 |[K:treble] x6 | %168
[K:bass] x4[K:treble] x2 | x6 |[K:bass] x4[K:treble] x2 | x6 | x6 ||[M:2/4] x4 ||[M:3/4] x6 | x6 | %176
 x6 ||[K:Bb][K:bass] !>![F,,,F,,]6 | z2[K:treble] !tenuto![_CEA]2[K:bass] !tenuto![E,B,]2 | %179
 !>![F,,,F,,]6 | x6 | x6 | x6 | [B,,,F,,]6 | x6 |{/xx} B,,,6 |{/xx} B,,,6 | x6 | x6 | [B,,,F,,]6 | %190
{/xx} [B,,,F,,]4 x2 | x2 (C=B,) ([D,,A,,]F,) | (=B,_B,) ([D,,A,,]F,) F,2 | x6 | x6 | x6 | D,,6 | %197
 x6 | x6 | x6 | =E,,6 | [A,,,A,,]6 | x6 | [D,,D,]6 | [G,,,G,,]6 | z [_A,_B,E]2 [_G,E]2 [F,E] | %206
 z [=G,D]2 [F,D]2 [=E,D] | z [_G,C]2 [F,C]2 [E,C] | z [D,B,]2 [_D,B,]2 [C,B,] | %209
 z !courtesy!=D,2 [D,B,D]2 [D,B,D] | z D,2 [D,B,D]2 [D,B,D] | z D,2 [D,B,D]2 [D,B,D] | %212
 z E,2 [F,A,E]2 [F,A,E] | x6 | x6 | x6 | [_G,A,]6 | x14/3[K:treble] x4/3 | [_D=E]6 | %219
[K:bass] x14/3[K:treble] x4/3 | [_GA]6 |[K:bass] x6 | x6 | x6 | x6 | x16/3[K:treble] x2/3 | x6 | %227
[K:bass] x16/3[K:treble] x2/3 | x6 |[K:bass] x6 | x6 | x2[K:treble] x4 | x6 | %233
[K:bass] [B,,,,B,,,]6[K:treble] | x6 | x4[K:bass] x2 | x6 | [B,,,,B,,,]4 !fermata![B,,,B,,]2 | %238
 z2 !fermata![B,,,B,,]4 | !fermata![B,,,,B,,,]6 |] %240
V:5
 x6 | x6 | x6 | x6 | x6 | x6 | x6 ||[K:Bb] x6 | x4[K:bass] x2 | x6 | x6 | x6 | x6 | x6 | x6 | %15
 x4/3[K:treble] x14/3 | x6 | x6 | x6 | x6 | x6 | x[K:bass] x5 | x6 | x4/3[K:treble] x14/3 | x6 | %25
 x6 | x6 | x6 | x6 | x6 | x6 | x6 | x6 | x6 | x6 | x6 | x6 | x6 | x3[K:bass] x3 | x6 | x6 | x6 | %42
 x4/3[K:treble] x14/3 | x6 | x6 | x6 | x6 | x6 | x6 | x6 | x5!8va(! x2 | x6!8va)! | x6 | x6 | x6 | %55
 x6 | x6 | x6 | x6 | x6 | x6 | x6 |[K:bass] x6 | x6 | x6 |[K:treble] x6 |[M:4/4] x8 | x8 | x8 | %69
 x8 | x8 | x8 | x8 | x8 | x8 |[M:3/4] x6 | x6 | x6 | x6 | x6 | x6 | x6 | x6 | B2 A4 | _A4 G2 | x6 | %86
 x6 | x6 | x6 | x6 | x6 | x6 | x6 | x6 | x6 | x6 | x6 | x6 | x6 | x6 | x6 | x6 | x6 | x6 | x6 | %105
 x6 | x6 |[K:bass] x6 | x6 |[K:treble] x6 | x16/3[K:bass] x2/3 | x6 | x6 | x2[K:treble] x4 | %114
 x3[K:bass] x3 ||[K:C][K:treble] x6 | x4[K:bass] x2 |[K:treble] x6 | x6 | x6 | x6 | x6 | x6 | x6 | %124
 x6 | x4 (3Ac_e | x6 | x2 (3_G_E_D x2 | x2/3[K:bass] x16/3 |[K:treble] x6 | x6 | x6 | x6 | x6 | %134
 x6 | x6 | x6 | x4 (3G^A^c | x6 | x2 (3GE!<(![I:staff +1]D x2!<)! | %140
 x2/3[I:staff -1][K:bass] x16/3 |[K:treble] x6 | x6 | x6 | x6 | x6 | x6 | x6 | x6 | x6 | x6 | x6 | %152
 x6 | x6 | x6 | x6 | x6 | x6 | x6 | x6 | x6 |!8va(! x4!8va)! x2 | x6 | x6 | x6 | x6 | %166
!8va(! x4!8va)! x2 | x6 | x6 | x6 | x4!8va(! x2 | x6 | x6 ||[M:2/4] x4 ||[M:3/4] x6 | x6 | %176
 x6!8va)! ||[K:Bb] x6 | x6 | x6 | x6 | x6 | x6 | x6 | x6 | x6 | x6 | x6 | x6 | x6 | %190
 !arpeggio!x x5 | x6 | x6 | x6 | x6 | x6 | x6 | x6 | x6 | x6 | x6 | x6 | x6 | x6 | x6 | x6 | x6 | %207
 x6 | x6 | x6 | x6 | x6 | x6 | x6 | x6 | x6 | x6 | x6 | x6 | x6 | x6 | x6 | x6 | x6 | x6 | %225
!8va(! x6 | x6 | x6 | x6 | x6 | x6 | x6 | x6 | x4[K:treble+8] x2 | x4[K:treble] x2!8va)! | x6 | %236
 x6 | x6 | x4!8va(! x2!8va)! | x6 |] %240
V:6
 x6 | x6 | x6 | x6 | x6 | x6 | x6 ||[K:Bb] x4[K:treble] x2 | x2[K:bass] x4 | x6 | x6 | x6 | x6 | %13
 x6 | x6 | x6 | x6 | x6 | x6 | x6 | x6 | x6 | x6 | x6 | x6 | x6 | x6 | x6 | x6 | %29
 x10/3[K:treble] x8/3 | x6 |[K:bass] x6 | x6 | x6 | x6 |[K:treble] x6 | x6 |[K:bass] x6 | x6 | x6 | %40
 x6 | x6 | x6 | x6 | x6 | x6 | x6 | x6 | x6 | x6 |[K:treble] x7 | x6 | x4[K:bass] x2 | x6 | x6 | %55
 x6 | x6 | x6 | x6 | x6 | x6 | x6 | x6 | x6 | x6 | x6 |[M:4/4] x8 | x8 | x8 | x8 | x8 | x8 | x8 | %73
 x8 | x8 |[M:3/4] x6 | x6 | x6 | x6 | x6 | x6 | x6 | x6 | x6 | x6 | x6 | x6 | x6 | x6 | x6 | x6 | %91
 x6 | x6 | x6 | x6 | x6 | x4[K:treble] x2 |[K:bass] x6 | x6 | x6 | x6 | x6 | x6 | x6 | x6 | %105
 x14/3[K:treble] x4/3 | x2[K:bass] x4 | x6 | x6 | x4[K:treble] x2 | x4[K:bass] x2 | x6 | x6 | x6 | %114
 x6 ||[K:C] [B,,B,]6 |[K:treble] x6 |[K:bass] x6 | x6 | x6 | x6 | x6 | x6 | x6 | x6 | x6 | %126
 x2[K:treble] x2[K:bass] x2 | x6 | x6 | x6 | x6 | x6 | x6 |[K:treble] x6 | x6 | x6 |[K:bass] x6 | %137
 x6 | x6 | x6 | x6 | x6 | x6 | x6 | x6 | x6 | x6 | x6 | x6 | x6 | x6 | x6 | x6 | x6 | x6 | x6 | %156
 x6 | x6 | x6 | x6 | x[K:treble] x5 | x4[K:bass] x2 | x4/3[K:treble] x14/3 |[K:bass] x6 | x6 | %165
 x[K:treble] x5 | x4[K:bass] x2 |[K:treble] x6 |[K:bass] x4[K:treble] x2 | x6 | %170
[K:bass] x4[K:treble] x2 | x6 | x6 ||[M:2/4] x4 ||[M:3/4] x6 | x6 | x6 ||[K:Bb][K:bass] x6 | %178
 x2[K:treble] x2[K:bass] x2 | x4 C,2 | D,2 E,2 x2 | x6 | x6 | F,6 | x6 | x6 | x6 | x6 | x6 | x6 | %190
 x6 | x6 | x6 | x6 | x6 | x6 | x6 | x6 | x6 | x6 | x6 | x6 | x6 | x6 | x6 | x6 | x6 | x6 | x6 | %209
 x6 | x6 | x6 | x6 | x6 | x6 | x6 | x6 | x14/3[K:treble] x4/3 | x6 |[K:bass] x14/3[K:treble] x4/3 | %220
 x6 |[K:bass] x6 | x6 | x6 | x6 | x16/3[K:treble] x2/3 | x6 |[K:bass] x16/3[K:treble] x2/3 | x6 | %229
[K:bass] x6 | x6 | x2[K:treble] x4 | x6 |[K:bass] x4[K:treble] x2 | x6 | x4[K:bass] x2 | x6 | x6 | %238
 x6 | [B,,B,]6 |] %240

